packages/icons/src/thick-arrow-down.svg

<svg width="15" height="15" viewBox="0 0 15 15" fill="none" xmlns="http://www.w3.org/2000/svg">
  <path
    fill-rule="evenodd"
    clip-rule="evenodd"
    d="M5 3.5C5 3.22386 5.22386 3 5.5 3H9.5C9.77614 3 10 3.22386 10 3.5V6H12.5C12.6873 6 12.8589 6.10467 12.9446 6.27121C13.0303 6.43774 13.0157 6.63821 12.9069 6.79062L7.90687 13.7906C7.81301 13.922 7.66148 14 7.5 14C7.33853 14 7.18699 13.922 7.09314 13.7906L2.09314 6.79062C1.98427 6.63821 1.96972 6.43774 2.05542 6.27121C2.14112 6.10467 2.31271 6 2.5 6H5V3.5ZM6 4V6.5C6 6.77614 5.77614 7 5.5 7H3.4716L7.5 12.6398L11.5284 7H9.5C9.22386 7 9 6.77614 9 6.5V4H6Z"
    fill="currentColor"
  />
</svg>

<svg xmlns="http://www.w3.org/2000/svg" width="15" height="15" fill="none"><path fill="currentColor" fill-rule="evenodd" d="M5 3.5a.5.5 0 0 1 .5-.5h4a.5.5 0 0 1 .5.5V6h2.5a.5.5 0 0 1 .407.79l-5 7a.5.5 0 0 1-.814 0l-5-7A.5.5 0 0 1 2.5 6H5zM6 4v2.5a.5.5 0 0 1-.5.5H3.472L7.5 12.64 11.528 7H9.5a.5.5 0 0 1-.5-.5V4z" clip-rule="evenodd"/></svg>
